svg/fantasy.svg

<svg xmlns="http://www.w3.org/2000/svg" viewBox="0 0 32 32" enable-background="new 0 0 32 32"><path d="M 20.875 2.5625 L 20.1875 3.3125 L 18.5 5.09375 L 15.90625 5.09375 L 14.90625 5.09375 L 14.90625 6.09375 L 14.90625 8.59375 L 13.1875 10.40625 L 12.5 11.125 L 13.1875 11.8125 L 14.6875 13.3125 L 3.03125 25 L 2.3125 25.71875 L 3.03125 26.40625 L 5.59375 28.96875 L 6.3125 29.6875 L 7 28.96875 L 18.6875 17.3125 L 20.1875 18.8125 L 20.875 19.5 L 21.59375 18.8125 L 23.40625 17.09375 L 25.90625 17.09375 L 26.90625 17.09375 L 26.90625 16.09375 L 26.90625 13.5 L 28.6875 11.8125 L 29.4375 11.125 L 28.71875 10.40625 L 26.90625 8.59375 L 26.90625 6.09375 L 26.90625 5.09375 L 25.90625 5.09375 L 23.40625 5.09375 L 21.59375 3.28125 L 20.875 2.5625 z M 20.90625 5.4375 L 22.28125 6.8125 L 22.59375 7.09375 L 23 7.09375 L 24.90625 7.09375 L 24.90625 9 L 24.90625 9.40625 L 25.1875 9.71875 L 26.5625 11.09375 L 25.21875 12.375 L 24.90625 12.65625 L 24.90625 13.09375 L 24.90625 15.09375 L 23 15.09375 L 22.59375 15.09375 L 22.3125 15.375 L 20.90625 16.71875 L 20.0625 15.875 L 23.90625 12.0625 L 24.625 11.375 L 23.90625 10.65625 L 21.34375 8.09375 L 20.65625 7.40625 L 19.9375 8.09375 L 16.125 11.9375 L 15.28125 11.09375 L 16.625 9.6875 L 16.90625 9.40625 L 16.90625 9 L 16.90625 7.09375 L 18.90625 7.09375 L 19.34375 7.09375 L 19.625 6.78125 L 20.90625 5.4375 z M 20.65625 10.21875 L 21.78125 11.375 L 6.3125 26.84375 L 5.15625 25.71875 L 20.65625 10.21875 z M 19 21 L 19 22 L 18 22 L 18 24 L 19 24 L 19 25 L 21 25 L 21 24 L 22 24 L 22 22 L 21 22 L 21 21 L 19 21 z M 25 23 L 25 25 L 23 25 L 23 27 L 25 27 L 25 29 L 27 29 L 27 27 L 29 27 L 29 25 L 27 25 L 27 23 L 25 23 z"/></svg>

<svg xmlns="http://www.w3.org/2000/svg" viewBox="0 0 32 32"><path style="text-indent:0;text-align:start;line-height:normal;text-transform:none;block-progression:tb;-inkscape-font-specification:Bitstream Vera Sans" d="M20.875 2.563l-.688.75-1.687 1.78h-3.594v3.5l-1.72 1.813-.686.72.688.687 1.5 1.5L3.03 25l-.717.72.718.686 2.564 2.563.718.718.688-.72 11.688-11.655 1.5 1.5.687.687.72-.688 1.81-1.718h3.5V13.5l1.782-1.688.75-.687-.718-.72-1.814-1.81v-3.5h-3.5L21.594 3.28l-.72-.717zm.03 2.874l1.376 1.375.314.282h2.312v2.312l.282.313 1.375 1.374-1.344 1.28-.314.282v2.438h-2.312l-.282.28-1.406 1.345-.843-.845 3.843-3.813.72-.687-.72-.72-2.562-2.56-.688-.69-.718.69-3.813 3.842-.844-.843 1.345-1.406.28-.282V7.094h2.44l.28-.313 1.28-1.343zm-.25 4.782l1.126 1.155-15.468 15.47-1.156-1.126 15.5-15.5zM19 21v1h-1v2h1v1h2v-1h1v-2h-1v-1h-2zm6 2v2h-2v2h2v2h2v-2h2v-2h-2v-2h-2z"/></svg>
